X:1
T:Abbotts Bromley Horn Dance
O:England
S:EFDSS
F:http://www.pghardy.net/concertina/tunebooks/pgh_session_tunebook.abc 2010-3-14
N:Repeat pattern varies, and doesn't matter to the "dance", which is free-form.
M:6/8
N:Also regularly played in Em
K:Gm
g \
| "Gm"d2g B2g | "Gm"d2g G2B | "Cm"ABc "Gm"Bcd | "D7"cBA "Gm"B2g \
| "Gm"d2g B2g | "Gm"d2g G2B | "Cm"ABc "Gm"Bcd | "D7"cBA "Gm"G2 :|
|: g \
| "Cm"e2g efg | "Cm"c2e cde |  "F"ABc "Gm"BAG | "Dm"FGA D2b \
| "Gm"g2b gab | "Cm"e2g efg | "Dm"fed     cBA | "Gm"G3  G2 :|
|: c \
| "Gm"ded "Cm"e3 | "Gm"ded "Cm"g3 | "Gm"ded "D7"cBA | "Gm"B3 "D7"B2c \
| "Gm"ded "Cm"e3 | "Gm"ded "Cm"g3 | "Gm"ded "D7"cBA | "Gm"G3 G2 :|
